X: 23374
T: Leitrim, The
R: reel
M: 4/4
K: Edorian
|:e~B3 eBdB|AFAB dcd2|e~B3 eBdB|AFDE FE E2:|
(3Bcd eg ~f2 fe|defg a~a3|Bdef ~g3b|afde fe e2|
(3Bcd eg ~f2 fe|defg ~a2 fa|bgaf gfed|e~B3 gBfB|

